packages/tokens/icons/compassStrikethrough/size32Px.svg

<svg viewBox="0 0 32 32" fill="none" xmlns="http://www.w3.org/2000/svg" width="1em" height="1em"><path fill-rule="evenodd" clip-rule="evenodd" d="M27 16C27 22.0751 22.0751 27 16 27C9.92487 27 5 22.0751 5 16C5 9.92487 9.92487 5 16 5C22.0751 5 27 9.92487 27 16ZM28 16C28 22.6274 22.6274 28 16 28C9.37258 28 4 22.6274 4 16C4 9.37258 9.37258 4 16 4C22.6274 4 28 9.37258 28 16ZM25 16C25 20.9706 20.9706 25 16 25C11.0294 25 7 20.9706 7 16C7 11.0294 11.0294 7 16 7C20.9706 7 25 11.0294 25 16ZM26 16C26 21.5228 21.5228 26 16 26C10.4772 26 6 21.5228 6 16C6 10.4772 10.4772 6 16 6C21.5228 6 26 10.4772 26 16Z" fill="currentColor"/><path d="M15.4964 10.8452C15.6612 10.412 16.2756 10.4168 16.4337 10.8524L18.2387 15.8264C18.279 15.9375 18.2787 16.0593 18.2377 16.1702L16.4328 21.0564C16.2732 21.4884 15.6638 21.4932 15.4975 21.0637L13.6049 16.1774C13.5603 16.0622 13.5599 15.9345 13.6038 15.819L15.4964 10.8452Z" stroke="currentColor"/><path fill-rule="evenodd" clip-rule="evenodd" d="M16.5 7C16.5 6.72386 16.2762 6.5 16 6.5C15.7239 6.5 15.5 6.72386 15.5 7V8.35C15.5 8.62614 15.7239 8.85 16 8.85C16.2762 8.85 16.5 8.62614 16.5 8.35V7ZM25 15.5H23.65C23.3739 15.5 23.15 15.7239 23.15 16C23.15 16.2761 23.3739 16.5 23.65 16.5H25C25.2762 16.5 25.5 16.2761 25.5 16C25.5 15.7239 25.2762 15.5 25 15.5ZM16 23.1499C16.2762 23.1499 16.5 23.3738 16.5 23.6499V24.9999C16.5 25.276 16.2762 25.4999 16 25.4999C15.7239 25.4999 15.5 25.276 15.5 24.9999V23.6499C15.5 23.3738 15.7239 23.1499 16 23.1499ZM8.35012 15.5H7.00012C6.72398 15.5 6.50012 15.7239 6.50012 16C6.50012 16.2761 6.72398 16.5 7.00012 16.5H8.35012C8.62627 16.5 8.85012 16.2761 8.85012 16C8.85012 15.7239 8.62627 15.5 8.35012 15.5Z" fill="currentColor"/><path d="M26.5 5.5L5.5 26.5" stroke="currentColor" stroke-linecap="round"/></svg>

<svg xmlns="http://www.w3.org/2000/svg" fill="none" viewBox="0 0 32 32" width="1em" height="1em"><path fill="currentColor" fill-rule="evenodd" d="M27 16c0 6.075-4.925 11-11 11S5 22.075 5 16 9.925 5 16 5s11 4.925 11 11Zm1 0c0 6.627-5.373 12-12 12S4 22.627 4 16 9.373 4 16 4s12 5.373 12 12Zm-3 0a9 9 0 1 1-18 0 9 9 0 0 1 18 0Zm1 0c0 5.523-4.477 10-10 10S6 21.523 6 16 10.477 6 16 6s10 4.477 10 10Z" clip-rule="evenodd"/><path stroke="currentColor" d="M15.496 10.845a.5.5 0 0 1 .938.007l1.805 4.974a.5.5 0 0 1-.001.344l-1.805 4.886a.5.5 0 0 1-.935.008l-1.893-4.887a.5.5 0 0 1-.001-.358l1.892-4.974Z"/><path fill="currentColor" fill-rule="evenodd" d="M16.5 7a.5.5 0 1 0-1 0v1.35a.5.5 0 0 0 1 0V7Zm8.5 8.5h-1.35a.5.5 0 0 0 0 1H25a.5.5 0 1 0 0-1Zm-9 7.65a.5.5 0 0 1 .5.5V25a.5.5 0 1 1-1 0v-1.35a.5.5 0 0 1 .5-.5ZM8.35 15.5H7a.5.5 0 0 0 0 1h1.35a.5.5 0 0 0 0-1Z" clip-rule="evenodd"/><path stroke="currentColor" stroke-linecap="round" d="m26.5 5.5-21 21"/></svg>
